Themes/OneUI/assets/svg/sounds-squircle.svg

<svg width="28" height="28" viewBox="0 0 28 28" fill="none" xmlns="http://www.w3.org/2000/svg">
<g clip-path="url(#clip0_1_8414)">
<path d="M24.856 3.14401C23.13 1.52161 20.7739 0.601214 18.1738 0.256914C15.6907 -0.072186 14 0.00881404 14 0.00881404C14 0.00881404 12.309 -0.072186 9.8258 0.256914C7.2258 0.601214 4.8698 1.52161 3.1443 3.14401C1.5215 4.86981 0.6012 7.22591 0.2567 9.82591C-0.0723999 12.3089 0.00890014 13.9999 0.00890014 13.9999C0.00890014 13.9999 -0.0723999 15.6907 0.2567 18.1739C0.6012 20.7737 1.5215 23.13 3.1441 24.8558C4.8698 26.4784 7.2258 27.3986 9.8258 27.7433C12.309 28.0722 14 27.9912 14 27.9912C14 27.9912 15.6907 28.0722 18.1738 27.7433C20.7739 27.3986 23.13 26.4784 24.8556 24.8558C26.4786 23.13 27.3988 20.7737 27.7433 18.1739C28.0722 15.6907 27.9912 13.9999 27.9912 13.9999C27.9912 13.9999 28.0722 12.3089 27.7433 9.82591C27.3988 7.22591 26.4786 4.86981 24.856 3.14401Z" fill="black"/>
<path d="M13.6894 7.70122C14.2523 7.19522 14.7124 7.40152 14.7124 8.15682V19.8443C14.7124 20.6006 14.2523 20.8059 13.6894 20.3008L9.492 16.7588V16.724C9.4031 16.7387 9.3133 16.7487 9.2207 16.7487H7.3012C6.4184 16.7487 5.697 16.0264 5.697 15.1446V12.8529C5.697 11.9701 6.4184 11.2487 7.3012 11.2487H9.2207C9.3133 11.2487 9.4031 11.2588 9.492 11.2735V11.2423L13.6894 7.70122ZM18.6556 8.03322C18.9141 7.75462 19.3495 7.73902 19.6272 7.99662C21.3533 9.59802 22.303 11.7302 22.303 14.0017C22.303 16.2723 21.3524 18.4044 19.6272 20.0049C19.4943 20.1277 19.3275 20.1883 19.1597 20.1883C18.9755 20.1883 18.7912 20.1149 18.6556 19.9692C18.3971 19.6905 18.4145 19.2551 18.6922 18.9966C20.1341 17.6601 20.928 15.8854 20.928 14.0017C20.928 12.117 20.1341 10.3433 18.6922 9.00492C18.4145 8.74642 18.3971 8.31192 18.6556 8.03322ZM16.7022 10.6631C16.9635 10.389 17.398 10.3762 17.6748 10.6374C18.6208 11.5339 19.1424 12.7274 19.1433 14.0007C19.1433 15.2739 18.6208 16.4683 17.6748 17.3648C17.541 17.4913 17.3714 17.5527 17.2018 17.5527C17.0194 17.5527 16.8379 17.4812 16.7022 17.3392C16.441 17.0632 16.4538 16.6269 16.7297 16.3666C17.3989 15.7322 17.7683 14.8926 17.7683 14.0007C17.7674 13.1097 17.3989 12.2691 16.7297 11.6357C16.4538 11.3744 16.441 10.939 16.7022 10.6631Z" fill="white"/>
</g>
<defs>
<clipPath id="clip0_1_8414">
<rect width="28" height="28" fill="white"/>
</clipPath>
</defs>
</svg>

<?xml version="1.0" encoding="UTF-8" standalone="no"?>
<svg
   width="28.000011"
   height="28.000021"
   viewBox="0 0 28.000011 28.000021"
   fill="none"
   version="1.1"
   id="svg2386"
   sodipodi:docname="sounds-squircle.svg"
   xmlns:inkscape="http://www.inkscape.org/namespaces/inkscape"
   xmlns:sodipodi="http://sodipodi.sourceforge.net/DTD/sodipodi-0.dtd"
   xmlns="http://www.w3.org/2000/svg"
   xmlns:svg="http://www.w3.org/2000/svg">
  <sodipodi:namedview
     id="namedview2388"
     pagecolor="#ffffff"
     bordercolor="#666666"
     borderopacity="1.0"
     inkscape:showpageshadow="2"
     inkscape:pageopacity="0.0"
     inkscape:pagecheckerboard="0"
     inkscape:deskcolor="#d1d1d1" />
  <g
     clip-path="url(#clip0_1_8414)"
     id="g2379">
    <path
       d="M 24.856,3.14401 C 23.13,1.52161 20.7739,0.601214 18.1738,0.256914 15.6907,-0.072186 14,0.00881404 14,0.00881404 c 0,0 -1.691,-0.08100004 -4.1742,0.24809996 -2.6,0.3443 -4.956,1.264696 -6.6815,2.887096 -1.6228,1.7258 -2.5431,4.0819 -2.8876,6.6819 -0.3290999,2.48299 -0.24779986,4.17399 -0.24779986,4.17399 0,0 -0.08130004,1.6908 0.24779986,4.174 0.3445,2.5998 1.2648,4.9561 2.8874,6.6819 1.7257,1.6226 4.0817,2.5428 6.6817,2.8875 C 12.309,28.0722 14,27.9912 14,27.9912 c 0,0 1.6907,0.081 4.1738,-0.2479 2.6001,-0.3447 4.9562,-1.2649 6.6818,-2.8875 1.623,-1.7258 2.5432,-4.0821 2.8877,-6.6819 0.3289,-2.4832 0.2479,-4.174 0.2479,-4.174 0,0 0.081,-1.691 -0.2479,-4.17399 -0.3445,-2.6 -1.2647,-4.9561 -2.8873,-6.6819 z"
       fill="#000000"
       id="path2375" />
    <path
       d="m 13.6894,7.70122 c 0.5629,-0.506 1.023,-0.2997 1.023,0.4556 V 19.8443 c 0,0.7563 -0.4601,0.9616 -1.023,0.4565 L 9.492,16.7588 V 16.724 C 9.4031,16.7387 9.3133,16.7487 9.2207,16.7487 H 7.3012 c -0.8828,0 -1.6042,-0.7223 -1.6042,-1.6041 v -2.2917 c 0,-0.8828 0.7214,-1.6042 1.6042,-1.6042 h 1.9195 c 0.0926,0 0.1824,0.0101 0.2713,0.0248 v -0.0312 z m 4.9662,0.332 c 0.2585,-0.2786 0.6939,-0.2942 0.9716,-0.0366 1.7261,1.6014 2.6758,3.73358 2.6758,6.00508 0,2.2706 -0.9506,4.4027 -2.6758,6.0032 -0.1329,0.1228 -0.2997,0.1834 -0.4675,0.1834 -0.1842,0 -0.3685,-0.0734 -0.5041,-0.2191 -0.2585,-0.2787 -0.2411,-0.7141 0.0366,-0.9726 1.4419,-1.3365 2.2358,-3.1112 2.2358,-4.9949 0,-1.8847 -0.7939,-3.6584 -2.2358,-4.99678 -0.2777,-0.2585 -0.2951,-0.693 -0.0366,-0.9717 z m -1.9534,2.62988 c 0.2613,-0.2741 0.6958,-0.2869 0.9726,-0.0257 0.946,0.8965 1.4676,2.09 1.4685,3.3633 0,1.2732 -0.5225,2.4676 -1.4685,3.3641 -0.1338,0.1265 -0.3034,0.1879 -0.473,0.1879 -0.1824,0 -0.3639,-0.0715 -0.4996,-0.2135 -0.2612,-0.276 -0.2484,-0.7123 0.0275,-0.9726 0.6692,-0.6344 1.0386,-1.474 1.0386,-2.3659 -9e-4,-0.891 -0.3694,-1.7316 -1.0386,-2.365 -0.2759,-0.2613 -0.2887,-0.6967 -0.0275,-0.9726 z"
       fill="#ffffff"
       id="path2377" />
  </g>
  <defs
     id="defs2384">
    <clipPath
       id="clip0_1_8414">
      <rect
         width="28"
         height="28"
         fill="#ffffff"
         id="rect2381"
         x="0"
         y="0" />
    </clipPath>
  </defs>
</svg>
